icons/1_Primary/TaxSlayer.svg

<svg xmlns="http://www.w3.org/2000/svg" width="1024" height="1024" fill="none">
   <g clip-path="url(#a)">
      <path fill="#FF837D" d="M512 1024c282.77 0 512-229.23 512-512S794.77 0 512 0 0 229.23 0 512s229.23 512 512 512Z"/>
      <path fill="#fff" d="M554.09 264.5c-27.52-11.33-58.28-11.33-84.19 0-61.52 25.9-168.37 76.09-168.37 110.09v309.22l170 84.19-9.71-210.47L363.05 530v-72.84L512 466.87l148.95-9.71V530l-98.76 27.52L552.47 768l170-84.19V374.59c-.01-34-106.86-84.19-168.38-110.09Z"/>
   </g>
   <defs>
      <clipPath id="a">
         <path fill="#fff" d="M0 0h1024v1024H0z"/>
      </clipPath>
   </defs>
</svg>

<svg width="1024" height="1024" viewBox="0 0 1024 1024" fill="none" xmlns="http://www.w3.org/2000/svg">
<g clip-path="url(#clip0_2_3603)">
<path d="M512 1024C794.77 1024 1024 794.77 1024 512C1024 229.23 794.77 0 512 0C229.23 0 0 229.23 0 512C0 794.77 229.23 1024 512 1024Z" fill="#FF837D"/>
<path d="M554.09 264.5C526.57 253.17 495.81 253.17 469.9 264.5C408.38 290.4 301.53 340.59 301.53 374.59V683.81L471.53 768L461.82 557.53L363.05 530V457.16L512 466.87L660.95 457.16V530L562.19 557.52L552.47 768L722.47 683.81V374.59C722.46 340.59 615.61 290.4 554.09 264.5Z" fill="white"/>
</g>
<defs>
<clipPath id="clip0_2_3603">
<rect width="1024" height="1024" fill="white"/>
</clipPath>
</defs>
</svg>
